assets/img/logos/logo-frequence.svg

<svg width="188" height="41" viewBox="0 0 188 41" fill="none" xmlns="http://www.w3.org/2000/svg">
<path d="M94.0793 30.8958C94.0466 30.7802 93.9863 30.6646 93.9863 30.5489C93.9813 28.3357 93.9825 26.1224 93.9825 23.9091C93.9825 23.8287 93.9825 23.747 93.9825 23.6276C91.7102 25.2489 89.2531 25.7516 86.5886 25.0528C84.6217 24.5363 83.0393 23.4215 81.8504 21.7725C79.4926 18.5048 79.7804 13.9965 82.4888 11.0417C85.3242 7.94742 90.2686 7.15814 94.019 9.99354C94.1233 9.64917 94.2414 9.31862 94.3206 8.97802C94.3747 8.74551 94.479 8.66758 94.719 8.67261C95.5221 8.68769 96.3252 8.67764 97.1271 8.6789C97.3797 8.6789 97.3998 8.69775 97.3998 8.9554C97.3998 16.1746 97.4011 23.3938 97.3961 30.613C97.3961 30.7073 97.3357 30.8016 97.3031 30.8958C96.2297 30.8958 95.1551 30.8958 94.0793 30.8958ZM83.6778 16.7905C83.6778 19.6083 85.9665 21.9309 88.7478 21.9334C91.6121 21.9359 93.9498 19.6548 93.9524 16.8546C93.9536 14.0116 91.6712 11.6915 88.9075 11.6538C86.0457 11.6161 83.6564 13.9551 83.6778 16.7905Z" fill="#07293A"/>
<path d="M64.952 18.4418C65.3115 19.4146 65.8758 20.1863 66.6626 20.7921C68.4272 22.1494 70.8013 22.2261 72.6526 21.0007C72.7657 20.9253 72.9203 20.8775 73.0573 20.8763C73.9723 20.865 74.886 20.8725 75.801 20.87C76.1843 20.8687 76.5689 20.8549 76.9522 20.8574C77.0339 20.8574 77.1659 20.8838 77.1873 20.9353C77.2162 21.0045 77.1835 21.1226 77.1382 21.1955C75.86 23.2391 74.0263 24.5248 71.6924 25.064C67.0509 26.1348 62.4158 23.2001 61.4367 18.5335C60.8234 15.6127 61.5536 12.9997 63.6148 10.8254C65.4849 8.85096 67.8289 8.00637 70.5324 8.20244C74.294 8.47642 77.5165 11.4023 78.2028 15.1188C78.3913 16.1406 78.38 17.1561 78.2153 18.1766C78.1852 18.3676 78.0897 18.4431 77.9087 18.4418C77.5945 18.4405 77.2803 18.4418 76.9661 18.4418C73.0561 18.4418 69.1473 18.4418 65.2373 18.4418C65.1531 18.4418 65.0702 18.4418 64.952 18.4418ZM74.6196 15.0132C74.0716 13.2976 72.2178 11.528 69.6413 11.5883C67.5625 11.6361 65.3291 13.2813 64.9772 15.0132C68.1871 15.0132 71.3958 15.0132 74.6196 15.0132Z" fill="#07293A"/>
<path d="M174.617 18.4421C174.651 18.5401 174.67 18.6055 174.695 18.6683C175.914 21.6621 179.598 22.797 182.288 21.0148C182.418 20.9293 182.595 20.8778 182.751 20.8766C183.68 20.864 184.608 20.8715 185.536 20.869C185.892 20.8678 186.247 20.8552 186.603 20.8539C186.888 20.8527 186.945 20.9532 186.795 21.1945C185.552 23.1853 183.773 24.4547 181.51 25.0228C176.858 26.1904 172.157 23.3098 171.106 18.6143C170.002 13.6724 173.272 9.16042 177.876 8.31583C182.474 7.4725 186.803 10.3645 187.82 14.9343C188.061 16.0202 188.045 17.1073 187.87 18.1995C187.845 18.3528 187.758 18.4345 187.601 18.4396C187.538 18.4421 187.475 18.4408 187.412 18.4408C183.245 18.4408 179.076 18.4408 174.908 18.4408C174.823 18.4421 174.735 18.4421 174.617 18.4421ZM174.632 15.0097C177.854 15.0097 181.06 15.0097 184.272 15.0097C183.778 13.3934 182.006 11.61 179.497 11.5886C176.922 11.5685 175.13 13.3959 174.632 15.0097Z" fill="#07293A"/>
<path d="M122.186 18.3719C122.351 18.7037 122.477 19.0053 122.642 19.2831C124.164 21.837 127.444 22.576 129.929 20.9346C130.032 20.8667 130.171 20.8177 130.293 20.8177C131.598 20.8064 132.904 20.8051 134.21 20.8076C134.296 20.8076 134.428 20.8353 134.458 20.8931C134.49 20.9534 134.443 21.0766 134.397 21.1507C133.053 23.276 131.132 24.5932 128.677 25.062C124.072 25.9405 119.727 23.0561 118.693 18.4888C117.86 14.8063 119.682 10.8724 123.036 9.11536C126.283 7.41487 130.145 7.88367 132.821 10.3571C134.788 12.1745 135.719 14.4468 135.591 17.1327C135.575 17.4733 135.512 17.8113 135.474 18.1507C135.456 18.3015 135.376 18.3744 135.225 18.3731C135.162 18.3719 135.099 18.3731 135.037 18.3731C130.863 18.3731 126.688 18.3731 122.514 18.3731C122.424 18.3719 122.335 18.3719 122.186 18.3719ZM122.245 14.942C125.463 14.942 128.668 14.942 131.878 14.942C131.335 13.2227 129.42 11.4405 126.855 11.5373C124.555 11.6227 122.76 13.2717 122.245 14.942Z" fill="#07293A"/>
<path d="M112.724 23.9431C111.856 24.5313 110.951 24.9386 109.964 25.1472C106.342 25.9139 102.773 24.1279 101.203 20.7671C100.69 19.6699 100.434 18.5162 100.434 17.3046C100.434 14.5396 100.434 11.7758 100.434 9.01079C100.434 8.67773 100.434 8.67773 100.775 8.67773C101.704 8.67773 102.632 8.67773 103.561 8.67773C103.837 8.67773 103.842 8.68402 103.842 8.95801C103.842 11.7368 103.827 14.5144 103.847 17.2933C103.86 19.0503 104.591 20.4479 106.13 21.3377C108.794 22.8811 112.241 21.1681 112.645 18.1228C112.675 17.8953 112.69 17.664 112.69 17.4353C112.693 14.6225 112.693 11.8085 112.693 8.99571C112.693 8.68402 112.699 8.67773 113.007 8.67773C113.942 8.67773 114.878 8.67773 115.813 8.67773C116.104 8.67773 116.113 8.68779 116.113 8.96555C116.113 14.3058 116.113 19.6461 116.113 24.9863C116.113 25.2741 116.105 25.2817 115.818 25.2817C114.988 25.2817 114.157 25.2766 113.326 25.2854C113.148 25.2867 113.062 25.2327 113.021 25.0567C112.935 24.6947 112.83 24.334 112.724 23.9431Z" fill="#07293A"/>
<path d="M140.967 10.1015C141.304 9.91168 141.623 9.7131 141.957 9.54594C144.848 8.09556 148.334 8.59578 150.686 10.8116C152.394 12.4203 153.257 14.4111 153.269 16.7576C153.281 19.4799 153.271 22.2034 153.271 24.9257C153.271 25.2223 153.265 25.2286 152.965 25.2286C152.022 25.2286 151.079 25.2286 150.137 25.2286C149.873 25.2286 149.853 25.2085 149.853 24.9421C149.853 22.1431 149.854 19.3429 149.851 16.5439C149.85 14.3269 148.155 12.4304 145.95 12.1752C143.694 11.9138 141.575 13.4509 141.127 15.6868C141.057 16.0337 141.02 16.3919 141.018 16.745C141.01 19.4535 141.013 22.1632 141.013 24.8717C141.013 25.2299 141.013 25.2299 140.651 25.2299C139.723 25.2299 138.794 25.2299 137.866 25.2299C137.616 25.2299 137.594 25.2085 137.594 24.9534C137.594 19.6898 137.594 14.4249 137.59 9.16135C137.59 8.96277 137.651 8.8949 137.855 8.89742C138.672 8.90747 139.489 8.90496 140.306 8.89867C140.454 8.89742 140.532 8.94141 140.582 9.08594C140.702 9.42528 140.837 9.76086 140.967 10.1015Z" fill="#07293A"/>
<path d="M163.629 8.16797C166.11 8.19562 168.028 8.94217 169.663 10.4127C169.907 10.6326 169.907 10.6816 169.678 10.9116C169.027 11.5639 168.374 12.2149 167.723 12.866C167.532 13.0558 167.493 13.0533 167.29 12.8811C165.753 11.5865 164.013 11.2258 162.129 11.9146C160.26 12.597 159.137 13.982 158.819 15.944C158.282 19.2645 161.081 22.1916 164.424 21.8435C165.518 21.7291 166.48 21.2993 167.301 20.5666C167.456 20.4296 167.563 20.4346 167.706 20.5791C168.364 21.2427 169.032 21.8988 169.694 22.5599C169.904 22.7685 169.902 22.8263 169.678 23.0287C167.892 24.645 165.79 25.3978 163.39 25.2709C159.413 25.0597 156.084 22.0484 155.448 18.117C154.71 13.556 157.688 9.25135 162.227 8.3389C162.778 8.22704 163.346 8.20065 163.629 8.16797Z" fill="#07293A"/>
<path d="M45.4396 8.73297C45.5351 8.73297 45.6168 8.73297 45.6985 8.73297C46.8988 8.73297 48.1003 8.73297 49.3006 8.73297C49.562 8.73297 49.5746 8.74554 49.5746 9.00319C49.5746 9.95963 49.5746 10.9161 49.5746 11.8725C49.5746 12.1277 49.562 12.1402 49.2993 12.1402C48.099 12.1402 46.8975 12.1402 45.6972 12.1402C45.6156 12.1402 45.5339 12.1402 45.427 12.1402C45.427 12.2559 45.427 12.3451 45.427 12.4331C45.427 16.6082 45.427 20.7834 45.427 24.9573C45.427 25.3017 45.4182 25.3105 45.0776 25.3105C44.1488 25.3105 43.22 25.3105 42.2925 25.3105C42.021 25.3105 42.0034 25.2942 42.0022 25.029C42.0022 18.7461 41.9959 12.462 42.0047 6.1791C42.0085 3.18157 43.9716 0.763434 46.89 0.13125C47.7195 -0.048476 48.5515 -0.0421919 49.3823 0.141305C49.5281 0.173982 49.5771 0.241851 49.5771 0.383872C49.5733 1.32649 49.5758 2.26911 49.5746 3.21173C49.5746 3.43042 49.5042 3.47567 49.2742 3.47064C48.7727 3.45807 48.2662 3.40403 47.7723 3.45933C46.4978 3.60009 45.4321 4.83429 45.4283 6.11626C45.4258 6.91183 45.427 7.70866 45.4283 8.50423C45.4283 8.57335 45.4346 8.64122 45.4396 8.73297Z" fill="#07293A"/>
<path d="M55.72 9.84415C56.1461 9.5865 56.5407 9.32382 56.9567 9.10136C57.9785 8.55464 59.0757 8.25426 60.2295 8.15749C60.5047 8.13486 60.55 8.17885 60.5512 8.45284C60.5525 9.40174 60.5475 10.3519 60.555 11.3008C60.5563 11.4931 60.4934 11.566 60.2961 11.5899C57.7221 11.889 55.7803 14.0658 55.7766 16.6561C55.7728 19.435 55.7753 22.2138 55.7753 24.9927C55.7753 25.3094 55.7703 25.3132 55.4623 25.3144C54.5273 25.3144 53.5909 25.3144 52.6559 25.3144C52.363 25.3144 52.3555 25.3069 52.3555 25.0254C52.3555 19.6776 52.3555 14.3298 52.3555 8.98196C52.3555 8.70798 52.3643 8.69918 52.6383 8.69918C53.4414 8.69918 54.2445 8.70295 55.0463 8.69541C55.2022 8.69415 55.2864 8.74065 55.3404 8.89147C55.4586 9.20945 55.5918 9.52366 55.72 9.84415Z" fill="#07293A"/>
<path d="M96.9088 35.204H97.8768V38.702C97.8768 39.626 98.2508 40.077 99.1198 40.077C99.3948 40.077 99.7248 40.066 99.9558 39.978V39.252C99.8018 39.285 99.6038 39.296 99.4718 39.296C98.9658 39.296 98.8338 39.021 98.8338 38.471V35.204H100.066V34.423H98.8338V32.773H97.8768V34.423H96.9088V35.204ZM101.094 31.926V40H102.062V36.953C102.062 35.787 102.502 35.127 103.503 35.127C104.317 35.127 104.713 35.655 104.713 36.601V40H105.681V36.436C105.681 34.775 104.691 34.291 103.8 34.291C102.854 34.291 102.337 34.753 102.062 35.248V31.926H101.094ZM111.834 37.382C111.845 37.239 111.845 37.096 111.845 36.92C111.845 35.732 111.262 34.291 109.458 34.291C107.764 34.291 106.928 35.611 106.928 37.272C106.928 38.702 107.643 40.132 109.392 40.132C110.921 40.132 111.526 39.175 111.746 38.46H110.767C110.591 38.867 110.305 39.329 109.425 39.329C108.479 39.329 107.907 38.515 107.896 37.382H111.834ZM107.929 36.711C108.028 35.732 108.457 35.05 109.447 35.05C110.393 35.05 110.855 35.787 110.866 36.711H107.929ZM116.997 40V35.204H118.119V34.423H116.997V33.818C116.997 33.004 117.217 32.652 117.789 32.652C117.932 32.652 118.141 32.674 118.273 32.707V31.882C118.141 31.838 117.866 31.816 117.657 31.816C116.425 31.816 116.029 32.729 116.029 33.752V34.423H115.138V35.204H116.029V40H116.997ZM123.456 34.423H122.488V37.327C122.488 38.724 122.092 39.296 121.069 39.296C120.145 39.296 119.914 38.614 119.914 37.888V34.423H118.957V38.086C118.957 39.659 119.859 40.132 120.805 40.132C121.685 40.132 122.213 39.78 122.488 39.164C122.499 39.516 122.51 39.857 122.532 40H123.467C123.467 39.67 123.456 38.922 123.456 38.372V34.423ZM124.506 35.204H125.474V38.702C125.474 39.626 125.848 40.077 126.717 40.077C126.992 40.077 127.322 40.066 127.553 39.978V39.252C127.399 39.285 127.201 39.296 127.069 39.296C126.563 39.296 126.431 39.021 126.431 38.471V35.204H127.663V34.423H126.431V32.773H125.474V34.423H124.506V35.204ZM133.071 34.423H132.103V37.327C132.103 38.724 131.707 39.296 130.684 39.296C129.76 39.296 129.529 38.614 129.529 37.888V34.423H128.572V38.086C128.572 39.659 129.474 40.132 130.42 40.132C131.3 40.132 131.828 39.78 132.103 39.164C132.114 39.516 132.125 39.857 132.147 40H133.082C133.082 39.67 133.071 38.922 133.071 38.372V34.423ZM134.717 40H135.685V37.294C135.685 35.886 136.411 35.281 137.555 35.248V34.291C136.631 34.313 135.971 34.808 135.685 35.556C135.685 35.017 135.663 34.577 135.652 34.423H134.706C134.706 34.72 134.717 35.16 134.717 35.941V40ZM143.008 37.382C143.019 37.239 143.019 37.096 143.019 36.92C143.019 35.732 142.436 34.291 140.632 34.291C138.938 34.291 138.102 35.611 138.102 37.272C138.102 38.702 138.817 40.132 140.566 40.132C142.095 40.132 142.7 39.175 142.92 38.46H141.941C141.765 38.867 141.479 39.329 140.599 39.329C139.653 39.329 139.081 38.515 139.07 37.382H143.008ZM139.103 36.711C139.202 35.732 139.631 35.05 140.621 35.05C141.567 35.05 142.029 35.787 142.04 36.711H139.103ZM149.271 34.291C147.588 34.291 146.642 35.567 146.642 37.217C146.642 38.9 147.61 40.132 149.205 40.132C150.91 40.132 151.834 38.812 151.834 37.195C151.834 35.446 150.822 34.291 149.271 34.291ZM149.227 35.094C150.272 35.094 150.844 35.963 150.844 37.217C150.844 38.482 150.261 39.329 149.249 39.329C148.248 39.329 147.632 38.438 147.632 37.206C147.632 35.941 148.182 35.094 149.227 35.094ZM154.283 40V35.204H155.405V34.423H154.283V33.818C154.283 33.004 154.503 32.652 155.075 32.652C155.218 32.652 155.427 32.674 155.559 32.707V31.882C155.427 31.838 155.152 31.816 154.943 31.816C153.711 31.816 153.315 32.729 153.315 33.752V34.423H152.424V35.204H153.315V40H154.283ZM159.048 40H160.005V36.909C160.005 35.853 160.434 35.127 161.325 35.127C162.205 35.127 162.403 35.765 162.403 36.48V40H163.349V36.799C163.349 35.809 163.745 35.127 164.658 35.127C165.527 35.127 165.758 35.809 165.758 36.447V40H166.704V36.337C166.704 34.83 165.857 34.291 164.944 34.291C163.998 34.291 163.47 34.764 163.173 35.292C162.953 34.687 162.414 34.291 161.622 34.291C160.742 34.291 160.258 34.786 160.005 35.281C160.005 34.995 159.983 34.588 159.961 34.423H159.037C159.048 34.874 159.048 35.38 159.048 35.864V40ZM172.86 37.382C172.871 37.239 172.871 37.096 172.871 36.92C172.871 35.732 172.288 34.291 170.484 34.291C168.79 34.291 167.954 35.611 167.954 37.272C167.954 38.702 168.669 40.132 170.418 40.132C171.947 40.132 172.552 39.175 172.772 38.46H171.793C171.617 38.867 171.331 39.329 170.451 39.329C169.505 39.329 168.933 38.515 168.922 37.382H172.86ZM168.955 36.711C169.054 35.732 169.483 35.05 170.473 35.05C171.419 35.05 171.881 35.787 171.892 36.711H168.955ZM177.847 31.926V35.006C177.704 34.687 177.264 34.291 176.274 34.291C174.734 34.291 173.777 35.556 173.777 37.272C173.777 38.966 174.657 40.132 176.098 40.132C177.011 40.132 177.572 39.791 177.847 39.208C177.847 39.428 177.869 39.857 177.902 40H178.826C178.815 39.461 178.815 38.944 178.815 38.427V31.926H177.847ZM174.778 37.239C174.778 35.886 175.383 35.105 176.373 35.105C177.627 35.105 177.891 35.886 177.891 37.129C177.891 38.35 177.594 39.318 176.296 39.318C175.416 39.318 174.778 38.581 174.778 37.239ZM180.457 40H181.425V34.423H180.457V40ZM181.425 33.125V31.926H180.457V33.125H181.425ZM187.161 36.117C187.161 34.852 186.402 34.291 185.038 34.291C183.432 34.291 182.959 35.171 182.882 35.941H183.817C183.916 35.512 184.081 35.05 185.005 35.05C186.05 35.05 186.204 35.644 186.204 36.139V36.612H185.258C183.597 36.612 182.618 37.184 182.618 38.427C182.618 39.274 183.179 40.132 184.499 40.132C185.577 40.132 186.028 39.637 186.226 39.274C186.237 39.615 186.27 39.879 186.314 40H187.238C187.205 39.835 187.161 39.296 187.161 38.779V36.117ZM186.215 37.459C186.215 38.471 186.039 39.373 184.697 39.373C184.004 39.373 183.608 38.955 183.608 38.372C183.608 37.591 184.202 37.283 185.313 37.283H186.215V37.459Z" fill="#07293A"/>
<path d="M11.9624 15.4021L15.3556 12.0409C15.7814 11.6191 16.3549 11.3836 16.9537 11.3836H29.7504C31.2101 11.3836 32.3944 10.2007 32.3944 8.73963V2.64398C32.3944 1.18427 31.2115 0 29.7504 0H16.778C15.3183 0 14.134 1.18294 14.134 2.64398V8.55867C14.134 9.16544 13.8919 9.7456 13.4607 10.1727L10.5134 13.0922C9.8627 13.7375 8.98181 14.0995 8.06633 14.0995H2.64398C1.18427 14.0995 0 15.2824 0 16.7434V22.8391C0 24.2988 1.18294 25.4831 2.64398 25.4831H8.73964C10.1993 25.4831 11.3836 24.3001 11.3836 22.8391V22.2869C11.3836 21.6428 11.9052 21.1212 12.5493 21.1212H13.333C13.977 21.1212 14.4986 21.6428 14.4986 22.2869V22.4532C14.4986 22.9748 14.2897 23.4751 13.9185 23.8424L10.4987 27.2302C9.84806 27.8756 8.96717 28.2375 8.05169 28.2375H2.64398C1.18427 28.2375 0 29.4204 0 30.8815V36.9771C0 38.4368 1.18294 39.6211 2.64398 39.6211H8.73964C10.1993 39.6211 11.3836 38.4382 11.3836 36.9771V31.5494C11.3836 30.6207 11.7549 29.7318 12.4149 29.0785L15.3809 26.1404C15.8067 25.7186 16.3802 25.4831 16.979 25.4831H23.2369C24.6967 25.4831 25.8809 24.3001 25.8809 22.8391V16.7434C25.8809 15.2837 24.698 14.0995 23.2369 14.0995H17.1413C15.6816 14.0995 14.4973 15.2824 14.4973 16.7434V17.2956C14.4973 17.9397 13.9757 18.4613 13.3317 18.4613H12.5479C11.9039 18.4613 11.3823 17.9397 11.3823 17.2956V16.794C11.3823 16.2724 11.5912 15.7721 11.9624 15.4048V15.4021Z" fill="#F54036"/>
</svg>

<svg xmlns="http://www.w3.org/2000/svg" width="188" height="41" fill="none" viewBox="0 0 188 41"><path fill="#07293A" d="M94.08 30.896c-.033-.116-.094-.231-.094-.347q-.006-3.32-.004-6.64v-.281c-2.272 1.62-4.729 2.124-7.393 1.425-1.967-.517-3.55-1.631-4.739-3.28-2.357-3.268-2.07-7.776.639-10.731 2.835-3.095 7.78-3.884 11.53-1.048.104-.345.222-.675.302-1.016.054-.232.158-.31.398-.305.803.015 1.606.005 2.408.006.253 0 .273.019.273.276q.002 10.83-.004 21.658c0 .094-.06.189-.093.283zM83.677 16.79c0 2.817 2.288 5.14 5.07 5.142 2.864.003 5.202-2.278 5.204-5.078.002-2.843-2.28-5.164-5.044-5.201-2.862-.038-5.252 2.301-5.23 5.137m-18.725 1.652c.36.973.924 1.744 1.71 2.35a5.12 5.12 0 0 0 5.99.209.8.8 0 0 1 .405-.125c.915-.011 1.829-.004 2.744-.006.383-.001.768-.015 1.151-.013.082 0 .214.027.235.078.03.07-.004.188-.049.26-1.278 2.044-3.112 3.33-5.446 3.869-4.641 1.07-9.276-1.864-10.255-6.53-.614-2.921.117-5.534 2.178-7.709 1.87-1.974 4.214-2.819 6.917-2.623 3.762.274 6.984 3.2 7.67 6.917a8.9 8.9 0 0 1 .013 3.058c-.03.19-.125.266-.306.265q-.472-.002-.943 0zm9.668-3.429c-.548-1.715-2.402-3.485-4.979-3.425-2.079.048-4.312 1.693-4.664 3.425zm99.997 3.429c.034.098.053.163.078.226 1.219 2.994 4.903 4.129 7.593 2.347a.9.9 0 0 1 .463-.138c.929-.013 1.857-.005 2.785-.008.356-.001.711-.014 1.067-.015.285-.001.342.1.192.34-1.243 1.991-3.022 3.26-5.285 3.829a8.524 8.524 0 0 1-10.404-6.409 8.527 8.527 0 0 1 6.77-10.298c4.598-.844 8.927 2.048 9.944 6.618.241 1.086.225 2.173.05 3.266-.025.153-.112.235-.269.24q-.095.002-.189 0h-12.504c-.085.002-.173.002-.291.002m.015-3.432h9.64c-.494-1.617-2.266-3.4-4.775-3.421-2.575-.02-4.367 1.807-4.865 3.42m-52.446 3.363c.165.332.291.633.456.911 1.522 2.554 4.802 3.293 7.287 1.652a.7.7 0 0 1 .364-.117q1.958-.016 3.917-.01c.086 0 .218.027.248.085.032.06-.015.184-.061.258-1.344 2.125-3.265 3.442-5.72 3.911-4.605.878-8.95-2.006-9.984-6.573-.833-3.683.989-7.617 4.343-9.374 3.247-1.7 7.109-1.231 9.785 1.242 1.967 1.818 2.898 4.09 2.77 6.776-.016.34-.079.678-.117 1.018-.018.15-.098.223-.249.222h-12.711zm.059-3.43h9.633c-.543-1.72-2.458-3.501-5.023-3.405-2.3.086-4.095 1.735-4.61 3.405m-9.521 9.001c-.868.588-1.773.996-2.76 1.204-3.622.767-7.191-1.02-8.761-4.38a8.1 8.1 0 0 1-.769-3.462V9.01c0-.333 0-.333.341-.333h2.786c.276 0 .281.006.281.28 0 2.779-.015 5.556.005 8.335.013 1.757.744 3.155 2.283 4.045 2.664 1.543 6.111-.17 6.515-3.215q.045-.343.045-.688.004-4.218.003-8.44c0-.311.006-.317.314-.317h2.806c.291 0 .3.01.3.288v16.02c0 .288-.008.296-.295.296-.83 0-1.661-.005-2.492.003-.178.002-.264-.052-.305-.228-.086-.362-.191-.723-.297-1.114m28.243-13.84c.337-.19.656-.389.99-.556a7.69 7.69 0 0 1 8.729 1.266c1.708 1.608 2.571 3.6 2.583 5.946.012 2.722.002 5.445.002 8.168 0 .296-.006.303-.306.303h-2.828c-.264 0-.284-.02-.284-.287q.001-4.2-.002-8.398c-.001-2.217-1.696-4.114-3.901-4.369-2.256-.261-4.375 1.276-4.823 3.512-.07.347-.107.705-.109 1.058-.008 2.708-.005 5.418-.005 8.127 0 .358 0 .358-.362.358h-2.785c-.25 0-.272-.021-.272-.277q.001-7.895-.004-15.792c0-.198.061-.266.265-.264q1.225.013 2.451.002c.148-.002.226.042.276.187.12.34.255.675.385 1.015m22.662-1.933c2.481.028 4.399.774 6.034 2.245.244.22.244.269.015.499l-1.955 1.954c-.191.19-.23.187-.433.015-1.537-1.295-3.277-1.655-5.161-.966-1.869.682-2.992 2.067-3.31 4.029-.537 3.32 2.262 6.248 5.605 5.9a5 5 0 0 0 2.877-1.277c.155-.137.262-.132.405.012.658.664 1.326 1.32 1.988 1.98.21.21.208.267-.016.47-1.786 1.616-3.888 2.369-6.288 2.242-3.977-.211-7.306-3.223-7.942-7.154a8.56 8.56 0 0 1 6.779-9.778c.551-.112 1.119-.138 1.402-.171M45.44 8.733h3.86c.261 0 .274.013.274.27v2.87c0 .255-.013.267-.276.267h-3.872v12.817c0 .345-.009.354-.35.354h-2.785c-.271 0-.289-.017-.29-.282 0-6.283-.006-12.567.003-18.85.003-2.997 1.967-5.416 4.885-6.048a5.8 5.8 0 0 1 2.492.01c.146.033.195.1.195.243-.004.942-.001 1.885-.002 2.828 0 .218-.07.264-.3.259-.502-.013-1.009-.067-1.503-.012-1.274.141-2.34 1.375-2.344 2.657q-.002 1.195 0 2.388c0 .07.007.137.012.229M55.72 9.844c.426-.258.82-.52 1.237-.743 1.021-.546 2.119-.847 3.273-.944.275-.022.32.022.321.296.002.949-.004 1.899.004 2.848.001.192-.062.265-.259.289a5.11 5.11 0 0 0-4.52 5.066c-.003 2.779 0 5.558 0 8.337 0 .316-.006.32-.314.321h-2.806c-.293 0-.3-.007-.3-.289V8.982c0-.274.008-.283.282-.283.803 0 1.607.004 2.408-.004.156 0 .24.046.294.196.119.318.252.633.38.953m41.189 25.36h.968v3.498c0 .924.374 1.375 1.243 1.375.275 0 .605-.011.836-.099v-.726a2.6 2.6 0 0 1-.484.044c-.506 0-.638-.275-.638-.825v-3.267h1.232v-.781h-1.232v-1.65h-.957v1.65h-.968zm4.185-3.278V40h.968v-3.047c0-1.166.44-1.826 1.441-1.826.814 0 1.21.528 1.21 1.474V40h.968v-3.564c0-1.661-.99-2.145-1.881-2.145-.946 0-1.463.462-1.738.957v-3.322zm10.74 5.456c.011-.143.011-.286.011-.462 0-1.188-.583-2.629-2.387-2.629-1.694 0-2.53 1.32-2.53 2.981 0 1.43.715 2.86 2.464 2.86 1.529 0 2.134-.957 2.354-1.672h-.979c-.176.407-.462.869-1.342.869-.946 0-1.518-.814-1.529-1.947zm-3.905-.671c.099-.979.528-1.661 1.518-1.661.946 0 1.408.737 1.419 1.661zM116.997 40v-4.796h1.122v-.781h-1.122v-.605c0-.814.22-1.166.792-1.166.143 0 .352.022.484.055v-.825c-.132-.044-.407-.066-.616-.066-1.232 0-1.628.913-1.628 1.936v.671h-.891v.781h.891V40zm6.459-5.577h-.968v2.904c0 1.397-.396 1.969-1.419 1.969-.924 0-1.155-.682-1.155-1.408v-3.465h-.957v3.663c0 1.573.902 2.046 1.848 2.046.88 0 1.408-.352 1.683-.968.011.352.022.693.044.836h.935c0-.33-.011-1.078-.011-1.628zm1.05.781h.968v3.498c0 .924.374 1.375 1.243 1.375.275 0 .605-.011.836-.099v-.726a2.6 2.6 0 0 1-.484.044c-.506 0-.638-.275-.638-.825v-3.267h1.232v-.781h-1.232v-1.65h-.957v1.65h-.968zm8.565-.781h-.968v2.904c0 1.397-.396 1.969-1.419 1.969-.924 0-1.155-.682-1.155-1.408v-3.465h-.957v3.663c0 1.573.902 2.046 1.848 2.046.88 0 1.408-.352 1.683-.968.011.352.022.693.044.836h.935c0-.33-.011-1.078-.011-1.628zM134.717 40h.968v-2.706c0-1.408.726-2.013 1.87-2.046v-.957c-.924.022-1.584.517-1.87 1.265 0-.539-.022-.979-.033-1.133h-.946c0 .297.011.737.011 1.518zm8.291-2.618c.011-.143.011-.286.011-.462 0-1.188-.583-2.629-2.387-2.629-1.694 0-2.53 1.32-2.53 2.981 0 1.43.715 2.86 2.464 2.86 1.529 0 2.134-.957 2.354-1.672h-.979c-.176.407-.462.869-1.342.869-.946 0-1.518-.814-1.529-1.947zm-3.905-.671c.099-.979.528-1.661 1.518-1.661.946 0 1.408.737 1.419 1.661zm10.168-2.42c-1.683 0-2.629 1.276-2.629 2.926 0 1.683.968 2.915 2.563 2.915 1.705 0 2.629-1.32 2.629-2.937 0-1.749-1.012-2.904-2.563-2.904m-.044.803c1.045 0 1.617.869 1.617 2.123 0 1.265-.583 2.112-1.595 2.112-1.001 0-1.617-.891-1.617-2.123 0-1.265.55-2.112 1.595-2.112M154.283 40v-4.796h1.122v-.781h-1.122v-.605c0-.814.22-1.166.792-1.166.143 0 .352.022.484.055v-.825c-.132-.044-.407-.066-.616-.066-1.232 0-1.628.913-1.628 1.936v.671h-.891v.781h.891V40zm4.765 0h.957v-3.091c0-1.056.429-1.782 1.32-1.782.88 0 1.078.638 1.078 1.353V40h.946v-3.201c0-.99.396-1.672 1.309-1.672.869 0 1.1.682 1.1 1.32V40h.946v-3.663c0-1.507-.847-2.046-1.76-2.046-.946 0-1.474.473-1.771 1.001-.22-.605-.759-1.001-1.551-1.001-.88 0-1.364.495-1.617.99 0-.286-.022-.693-.044-.858h-.924c.011.451.011.957.011 1.441zm13.812-2.618c.011-.143.011-.286.011-.462 0-1.188-.583-2.629-2.387-2.629-1.694 0-2.53 1.32-2.53 2.981 0 1.43.715 2.86 2.464 2.86 1.529 0 2.134-.957 2.354-1.672h-.979c-.176.407-.462.869-1.342.869-.946 0-1.518-.814-1.529-1.947zm-3.905-.671c.099-.979.528-1.661 1.518-1.661.946 0 1.408.737 1.419 1.661zm8.892-4.785v3.08c-.143-.319-.583-.715-1.573-.715-1.54 0-2.497 1.265-2.497 2.981 0 1.694.88 2.86 2.321 2.86.913 0 1.474-.341 1.749-.924 0 .22.022.649.055.792h.924c-.011-.539-.011-1.056-.011-1.573v-6.501zm-3.069 5.313c0-1.353.605-2.134 1.595-2.134 1.254 0 1.518.781 1.518 2.024 0 1.221-.297 2.189-1.595 2.189-.88 0-1.518-.737-1.518-2.079M180.457 40h.968v-5.577h-.968zm.968-6.875v-1.199h-.968v1.199zm5.736 2.992c0-1.265-.759-1.826-2.123-1.826-1.606 0-2.079.88-2.156 1.65h.935c.099-.429.264-.891 1.188-.891 1.045 0 1.199.594 1.199 1.089v.473h-.946c-1.661 0-2.64.572-2.64 1.815 0 .847.561 1.705 1.881 1.705 1.078 0 1.529-.495 1.727-.858.011.341.044.605.088.726h.924c-.033-.165-.077-.704-.077-1.221zm-.946 1.342c0 1.012-.176 1.914-1.518 1.914-.693 0-1.089-.418-1.089-1.001 0-.781.594-1.089 1.705-1.089h.902z"/><path fill="#F54036" d="m11.962 15.402 3.394-3.361a2.27 2.27 0 0 1 1.598-.657H29.75a2.644 2.644 0 0 0 2.644-2.644V2.644A2.644 2.644 0 0 0 29.75 0H16.778a2.644 2.644 0 0 0-2.644 2.644v5.915a2.27 2.27 0 0 1-.673 1.614l-2.948 2.92A3.48 3.48 0 0 1 8.066 14.1H2.644A2.644 2.644 0 0 0 0 16.743v6.096a2.644 2.644 0 0 0 2.644 2.644H8.74a2.644 2.644 0 0 0 2.644-2.644v-.552c0-.644.521-1.166 1.165-1.166h.784c.644 0 1.166.522 1.166 1.166v.166c0 .522-.21 1.022-.58 1.39l-3.42 3.387a3.48 3.48 0 0 1-2.447 1.008H2.644A2.644 2.644 0 0 0 0 30.88v6.096a2.644 2.644 0 0 0 2.644 2.644H8.74a2.644 2.644 0 0 0 2.644-2.644V31.55c0-.928.37-1.817 1.03-2.47l2.967-2.939c.426-.421 1-.657 1.598-.657h6.258a2.644 2.644 0 0 0 2.644-2.644v-6.096a2.644 2.644 0 0 0-2.644-2.643H17.14a2.644 2.644 0 0 0-2.644 2.643v.553c0 .644-.521 1.165-1.165 1.165h-.784a1.165 1.165 0 0 1-1.166-1.165v-.502c0-.522.21-1.022.58-1.39z"/></svg>
